src/scalable/mimetypes/image-x-compressed-xcf.svg

<?xml version="1.0" encoding="UTF-8" standalone="no"?>
<svg
   xmlns:dc="http://purl.org/dc/elements/1.1/"
   xmlns:cc="http://creativecommons.org/ns#"
   xmlns:rdf="http://www.w3.org/1999/02/22-rdf-syntax-ns#"
   xmlns:svg="http://www.w3.org/2000/svg"
   xmlns="http://www.w3.org/2000/svg"
   xmlns:sodipodi="http://sodipodi.sourceforge.net/DTD/sodipodi-0.dtd"
   xmlns:inkscape="http://www.inkscape.org/namespaces/inkscape"
   id="svg3844"
   height="64"
   width="64"
   version="1.1"
   sodipodi:docname="image-x-compressed-xcf.svg"
   inkscape:version="0.92.4 (5da689c313, 2019-01-14)">
  <sodipodi:namedview
     pagecolor="#ffffff"
     bordercolor="#666666"
     borderopacity="1"
     objecttolerance="10"
     gridtolerance="10"
     guidetolerance="10"
     inkscape:pageopacity="0"
     inkscape:pageshadow="2"
     inkscape:window-width="1366"
     inkscape:window-height="713"
     id="namedview40"
     showgrid="false"
     inkscape:zoom="7.375"
     inkscape:cx="17.56753"
     inkscape:cy="27.85072"
     inkscape:window-x="0"
     inkscape:window-y="25"
     inkscape:window-maximized="1"
     inkscape:current-layer="svg3844" />
  <defs
     id="defs3846" />
  <metadata
     id="metadata3849">
    <rdf:RDF>
      <cc:Work
         rdf:about="">
        <dc:format>image/svg+xml</dc:format>
        <dc:type
           rdf:resource="http://purl.org/dc/dcmitype/StillImage" />
        <dc:title />
      </cc:Work>
    </rdf:RDF>
  </metadata>
  <g
     transform="translate(4.0314962e-7,-988.36218)"
     id="text-x-preview_64"
     inkscape:label="#g4141">
    <g
       transform="matrix(1.3428376,0,0,1.340755,-0.22814694,988.19153)"
       id="layer1-1-7"
       inkscape:label="Layer 1">
      <path
         inkscape:connector-curvature="0"
         style="display:inline;fill:#fafafa;fill-opacity:1;stroke:none;stroke-width:0.99992186;stroke-linecap:butt;stroke-linejoin:round;stroke-miterlimit:4;stroke-dasharray:none;stroke-dashoffset:0;stroke-opacity:0.42452829"
         id="path4160-2"
         d="m 6.8655256,0.87983895 c 7.8515454,0 34.2636264,0.002756 34.2636264,0.002756 l 4e-5,43.24831005 c 0,0 -22.842445,0 -34.2636664,0 0,-14.417024 0,-28.834046 0,-43.25106605 z"
         sodipodi:nodetypes="ccccc" />
      <path
         inkscape:connector-curvature="0"
         style="display:inline;fill:none;fill-opacity:1;stroke:#4f6698;stroke-width:0.74521309;stroke-linecap:butt;stroke-linejoin:round;stroke-miterlimit:4;stroke-dasharray:none;stroke-dashoffset:0;stroke-opacity:0.26666667"
         id="path4160-3-1"
         d="m 6.4999609,0.49996093 c 8.0202951,0 35.0000391,0.0028 35.0000391,0.0028 l 4.2e-5,44.00280307 c 0,0 -23.333387,0 -35.0000811,0 0,-14.668535 0,-29.33707 0,-44.00560307 z"
         sodipodi:nodetypes="ccccc" />
    </g>
    <rect
       ry="2.17285e-05"
       rx="2.17285e-05"
       y="988.36218"
       x="0"
       height="63.999996"
       width="64"
       id="rect4139"
       style="opacity:0.75;fill:none;fill-opacity:0.56122448;stroke:none;stroke-width:1;stroke-linecap:butt;stroke-linejoin:miter;stroke-miterlimit:4;stroke-dasharray:none;stroke-dashoffset:0;stroke-opacity:1" />
  </g>
  <path
     style="color:#000000;display:inline;overflow:visible;visibility:visible;fill:#67614f;fill-opacity:1;fill-rule:nonzero;stroke:none;stroke-width:1;marker:none;enable-background:accumulate;clip-rule:nonzero;opacity:1;isolation:auto;mix-blend-mode:normal;color-interpolation:sRGB;color-interpolation-filters:linearRGB;solid-color:#000000;solid-opacity:1;stroke-linecap:butt;stroke-linejoin:miter;stroke-miterlimit:4;stroke-dasharray:none;stroke-dashoffset:0;stroke-opacity:1;filter-blend-mode:normal;filter-gaussianBlur-deviation:0;color-rendering:auto;image-rendering:auto;shape-rendering:auto;text-rendering:auto"
     d="M 44.208984 19.425781 C 44.160927 19.408986 44.110674 19.41095 44.060547 19.435547 C 43.940241 19.494577 43.834394 19.686786 43.730469 19.998047 C 43.485086 20.732986 41.914313 25.305389 33.892578 26.537109 A 3.9875889 3.9886997 0 0 1 36.0625 30.085938 A 3.9875889 3.9886997 0 0 1 32.074219 34.074219 A 3.9875889 3.9886997 0 0 1 28.445312 31.730469 A 3.164753 3.1656346 0 0 1 25.785156 33.1875 A 3.164753 3.1656346 0 0 1 22.642578 30.380859 C 22.541281 30.584406 22.419973 30.79122 22.248047 31.001953 C 22.186657 30.906183 22.149447 30.798357 22.082031 30.705078 C 21.675572 30.142733 21.198713 29.668837 20.691406 29.316406 C 20.108508 28.911462 19.50255 28.644407 18.904297 28.556641 C 18.214573 28.455455 17.547499 28.604652 17.017578 28.986328 C 16.487496 29.368117 16.177905 29.953044 16.056641 30.638672 C 15.951515 31.233051 15.988399 31.876849 16.189453 32.556641 C 16.364456 33.148345 16.644504 33.744276 17.050781 34.306641 C 17.479986 34.900738 18.013533 35.428007 18.572266 35.794922 C 19.202402 36.208725 19.870607 36.450511 20.525391 36.488281 C 20.728013 36.499971 20.934918 36.450035 21.121094 36.421875 C 25.362096 39.778453 33.781562 42.910924 39.361328 39.330078 C 39.482025 39.371088 39.603284 39.421034 39.724609 39.462891 C 39.727609 39.520221 39.709539 39.57783 39.724609 39.628906 L 39.990234 39.529297 C 40.037354 39.544247 40.07297 39.581603 40.121094 39.595703 C 40.131404 39.598803 40.143927 39.592703 40.154297 39.595703 L 40.253906 39.693359 L 42.769531 40.585938 C 42.666326 41.458021 43.09885 42.449089 44.193359 42.867188 C 46.164457 43.620136 48 44.583984 48 44.583984 C 47.059766 41.39762 46.716905 38.841277 44.259766 39.066406 C 43.802592 39.108296 43.457792 39.295842 43.201172 39.5625 L 40.982422 38.140625 L 40.882812 38.140625 L 40.849609 38.107422 C 43.836137 35.173077 45.582151 29.658518 44.523438 20.064453 C 44.477485 19.704868 44.353156 19.476168 44.208984 19.425781 z M 22.943359 22.34375 L 22.810547 28.292969 C 22.810547 28.292969 22.862185 28.475754 22.904297 28.722656 A 3.164753 3.1656346 0 0 1 25.785156 26.857422 A 3.164753 3.1656346 0 0 1 28.480469 28.369141 A 3.9875889 3.9886997 0 0 1 29.794922 26.820312 C 25.002726 26.567367 22.943359 22.34375 22.943359 22.34375 z M 26.275391 28.25 A 2.2159443 2.1737359 0 0 0 25.615234 28.349609 A 1.0972152 1.0763159 0 0 1 26.253906 29.326172 A 1.0972152 1.0763159 0 0 1 25.15625 30.402344 A 1.0972152 1.0763159 0 0 1 24.160156 29.777344 A 2.2159443 2.1737359 0 0 0 24.058594 30.423828 A 2.2159443 2.1737359 0 0 0 26.275391 32.597656 A 2.2159443 2.1737359 0 0 0 28.490234 30.423828 A 2.2159443 2.1737359 0 0 0 26.275391 28.25 z M 32.943359 28.671875 A 2.2159443 2.1737359 0 0 0 32.283203 28.771484 A 1.0972152 1.0763159 0 0 1 32.921875 29.748047 A 1.0972152 1.0763159 0 0 1 31.824219 30.824219 A 1.0972152 1.0763159 0 0 1 30.830078 30.199219 A 2.2159443 2.1737359 0 0 0 30.728516 30.845703 A 2.2159443 2.1737359 0 0 0 32.943359 33.019531 A 2.2159443 2.1737359 0 0 0 35.160156 30.845703 A 2.2159443 2.1737359 0 0 0 32.943359 28.671875 z M 18.517578 29.980469 A 1.1518466 1.287358 0 0 1 19.669922 31.267578 A 1.1518466 1.287358 0 0 1 18.517578 32.554688 A 1.1518466 1.287358 0 0 1 17.365234 31.267578 A 1.1518466 1.287358 0 0 1 18.517578 29.980469 z "
     id="path4323" />
</svg>

<svg xmlns="http://www.w3.org/2000/svg" height="64" width="64"><g transform="translate(0 -988.362)"><path d="M8.991 989.371l46.01.004v57.985H8.992v-57.989z" fill="#fafafa"/><path d="M6.5.5l35 .003v44.003h-35V.5z" fill="none" stroke="#4f6698" stroke-width=".745" stroke-linejoin="round" stroke-opacity=".267" transform="matrix(1.34284 0 0 1.34075 -.228 988.192)"/><rect ry="0" rx="0" y="988.362" height="64" width="64" opacity=".75" fill="none"/></g><path style="marker:none;isolation:auto;mix-blend-mode:normal;solid-color:#000;solid-opacity:1;filter-blend-mode:normal;filter-gaussianBlur-deviation:0" d="M44.209 19.426a.187.187 0 0 0-.148.01c-.12.059-.227.25-.33.562-.246.735-1.817 5.307-9.838 6.54a3.988 3.989 0 0 1 2.17 3.548 3.988 3.989 0 0 1-3.989 3.988 3.988 3.989 0 0 1-3.629-2.344 3.165 3.166 0 0 1-2.66 1.457 3.165 3.166 0 0 1-3.142-2.806 3.24 3.24 0 0 1-.395.621c-.061-.096-.099-.204-.166-.297a5.894 5.894 0 0 0-1.39-1.389c-.583-.405-1.19-.672-1.788-.76-.69-.1-1.357.049-1.886.43-.53.382-.84.967-.961 1.653-.105.594-.069 1.238.132 1.918.175.591.456 1.187.862 1.75a6.022 6.022 0 0 0 1.521 1.488c.63.414 1.299.656 1.953.693.203.012.41-.038.596-.066 4.241 3.356 12.66 6.489 18.24 2.908.121.041.242.091.364.133.003.057-.015.115 0 .166l.265-.1c.047.015.083.053.131.067.01.003.023-.003.033 0l.1.097 2.516.893c-.104.872.329 1.863 1.423 2.281A40.233 40.233 0 0 1 48 44.584c-.94-3.186-1.283-5.743-3.74-5.518-.457.042-.802.23-1.059.496l-2.219-1.421h-.1l-.032-.034c2.986-2.934 4.732-8.448 3.673-18.043-.046-.36-.17-.588-.314-.638zm-21.266 2.918l-.132 5.949s.051.183.093.43a3.165 3.166 0 0 1 2.881-1.866 3.165 3.166 0 0 1 2.695 1.512 3.988 3.989 0 0 1 1.315-1.549c-4.792-.253-6.852-4.476-6.852-4.476zm3.332 5.906a2.216 2.174 0 0 0-.66.1 1.097 1.076 0 0 1 .639.976 1.097 1.076 0 0 1-1.098 1.076 1.097 1.076 0 0 1-.996-.625 2.216 2.174 0 0 0-.101.647 2.216 2.174 0 0 0 2.216 2.174 2.216 2.174 0 0 0 2.215-2.174 2.216 2.174 0 0 0-2.215-2.174zm6.668.422a2.216 2.174 0 0 0-.66.1 1.097 1.076 0 0 1 .639.976 1.097 1.076 0 0 1-1.098 1.076 1.097 1.076 0 0 1-.994-.625 2.216 2.174 0 0 0-.101.647 2.216 2.174 0 0 0 2.214 2.174 2.216 2.174 0 0 0 2.217-2.174 2.216 2.174 0 0 0-2.217-2.174zM18.518 29.98a1.152 1.287 0 0 1 1.152 1.288 1.152 1.287 0 0 1-1.152 1.287 1.152 1.287 0 0 1-1.153-1.287 1.152 1.287 0 0 1 1.153-1.288z" color="#000" overflow="visible" fill="#67614f"/></svg>
